!! 00007] TT[TB
!! Eigene Aufnahme
!!!OTL: Gusu fengguang (Da jiulianhuan)
!!!ARE: Asia, China,ÿJiangsu, Suzhou
!! Ethnic Group: Han
!! III, 495
!!!SCT: C0169C
!!!YEM: Copyright 1995, estate of Helmut Schaffrath.
**kern
*ICvox
*Ivox
*M2/4
*k[f#]
*G:
{4a
8dd
16ee
16dd
=1
4cc#
4dd
=2
8.a
16b
8dd
16ee
16dd
=3
8.b
16a
16g
16f#
16e
16g
=4
4a
8dd
8b
=5
2a}
=6
{4a
8dd
16ee
16dd
=7
4cc#
4dd
=8
8.a
16b
8dd
16ee
16dd
=9
8.b
16a
16g
16f#
16e
16g
=10
4a
8b
8f#
=11
8.e
16g
8d
8e
=12
4.g
8e}
=13
{8ee
16gg
16ee
8dd
8cc
=14
16dd
8b
16a
4g
=15
8.f#
16e
8d
8e
=16
8g
16e
16g
16a
16dd
16b
16dd
=17
2g}
=18
{4b
4b
=19
4r
8a
8g
=20
8e
8g
4d
=21
4e
8e
8g
=22
8.a
16b
8a
8e
=23
2g}
=24
{4dd
8ee
8dd
=25
4cc#
4dd
=26
4ee
8gg
8ff#
=27
8.ee
16gg
8ee
8dd
=28
16b
16dd
16b
16dd
16ee
16dd
16ee
16gg
=29
8ee
8dd
8cc
8b
=30
4a
8dd
8b
=31
2a}
==
=32
{16ff#}
!!!AGN: Xiaodiao, Shidiao, Xiangjiangliang diao
!! Hier sind viele Weisen zusammengetragen. Wird von Streich-, Matouqin)
!!    und Zupfinstrumenten begleitet. Die Saengerin imitiert die
!!    Zwischenspiele. Charakter der Lokaloper. Saengerin: Huang Bai
!!    +++Dieses Lied wurde GETEILT!! Der 2.,3.,4. Teil folgt unter gleicher
!!    Signatur. Mehrere Verzierungen. Vor- und Zwischenspiele weggelassen.
!!    GRUNDTONWECHSEL!
!!!ONB: ESAC (Essen Associative Code) Database: CHINA
!!!AMT: simple duple
!!!AIN: vox
!!!EED: Helmut Schaffrath
!!!EEV: 1.0
*-
